svg/padlock-open-f.svg

<svg xmlns="http://www.w3.org/2000/svg" viewBox="0 0 48 64" enable-background="new 0 0 48 64"><style type="text/css">.st0{fill:#333333;}</style><title>padlock-open-f</title><desc>Created with Sketch.</desc><path class="st0" d="M44 32h-33v-14c0-7.2 5.8-13 13-13s13 5.8 13 13v2h5v-2c0-9.9-8.1-18-18-18s-18 8.1-18 18v14h-2c-2.2 0-4 1.8-4 4v24c0 2.2 1.8 4 4 4h40c2.2 0 4-1.8 4-4v-24c0-2.2-1.8-4-4-4zm-20 21c-2.8 0-5-2.2-5-5s2.2-5 5-5 5 2.2 5 5-2.2 5-5 5z"/></svg>

<?xml version="1.0" encoding="utf-8"?>
<!-- Generator: Adobe Illustrator 21.0.0, SVG Export Plug-In . SVG Version: 6.00 Build 0)  -->
<svg version="1.1" id="Layer_1" xmlns="http://www.w3.org/2000/svg" xmlns:xlink="http://www.w3.org/1999/xlink" x="0px" y="0px"
	 viewBox="0 0 48 64" style="enable-background:new 0 0 48 64;" xml:space="preserve">
<style type="text/css">
	.st0{fill:#333333;}
</style>
<title>padlock-open-f</title>
<desc>Created with Sketch.</desc>
<path class="st0" d="M44,32H11V18c0-7.2,5.8-13,13-13c7.2,0,13,5.8,13,13v2h5v-2c0-9.9-8.1-18-18-18C14.1,0,6,8.1,6,18v14H4
	c-2.2,0-4,1.8-4,4v24c0,2.2,1.8,4,4,4h40c2.2,0,4-1.8,4-4V36C48,33.8,46.2,32,44,32z M24,53c-2.8,0-5-2.2-5-5s2.2-5,5-5s5,2.2,5,5
	S26.8,53,24,53z"/>
</svg>
